svgs/regular/code-compare.svg

<svg xmlns="http://www.w3.org/2000/svg" viewBox="0 0 512 512"><!--! Font Awesome Pro 6.4.0 by @fontawesome - https://fontawesome.com License - https://fontawesome.com/license (Commercial License) Copyright 2023 Fonticons, Inc. --><path d="M320 488c0 9.5-5.6 18.1-14.2 21.9s-18.8 2.3-25.8-4.1l-80-72c-5.1-4.6-7.9-11-7.9-17.8s2.9-13.3 7.9-17.8l80-72c7-6.3 17.2-7.9 25.8-4.1s14.2 12.4 14.2 21.9v48h16c39.8 0 72-32.2 72-72V156.3c-32.5-10.2-56-40.5-56-76.3c0-44.2 35.8-80 80-80s80 35.8 80 80c0 35.8-23.5 66.1-56 76.3V320c0 66.3-53.7 120-120 120H320v48zM464 80a32 32 0 1 0 -64 0 32 32 0 1 0 64 0zM192 24c0-9.5 5.6-18.1 14.2-21.9s18.8-2.3 25.8 4.1l80 72c5.1 4.6 7.9 11 7.9 17.8s-2.9 13.3-7.9 17.8l-80 72c-7 6.3-17.2 7.9-25.8 4.1s-14.2-12.4-14.2-21.9V120H176c-39.8 0-72 32.2-72 72V355.7c32.5 10.2 56 40.5 56 76.3c0 44.2-35.8 80-80 80s-80-35.8-80-80c0-35.8 23.5-66.1 56-76.3V192c0-66.3 53.7-120 120-120h16V24zM48 432a32 32 0 1 0 64 0 32 32 0 1 0 -64 0z"/></svg>

<svg xmlns="http://www.w3.org/2000/svg" viewBox="0 0 512 512"><!--! Font Awesome Pro 6.3.0 by @fontawesome - https://fontawesome.com License - https://fontawesome.com/license (Commercial License) Copyright 2023 Fonticons, Inc. --><path d="M320 488C320 497.5 314.4 506.1 305.8 509.9C297.1 513.8 286.1 512.2 279.9 505.8L199.9 433.8C194.9 429.3 192 422.8 192 416C192 409.2 194.9 402.7 199.9 398.2L279.9 326.2C286.1 319.8 297.1 318.2 305.8 322.1C314.4 325.9 320 334.5 320 344V392H336C375.8 392 408 359.8 408 320V156.3C375.5 146.1 352 115.8 352 80C352 35.82 387.8 0 432 0C476.2 0 512 35.82 512 80C512 115.8 488.5 146.1 456 156.3V320C456 386.3 402.3 440 336 440H320V488zM464 79.1C464 62.33 449.7 47.1 432 47.1C414.3 47.1 400 62.33 400 79.1C400 97.67 414.3 111.1 432 111.1C449.7 111.1 464 97.67 464 79.1zM192 24C192 14.52 197.6 5.932 206.2 2.076C214.9-1.78 225-.1789 232.1 6.161L312.1 78.16C317.1 82.71 320 89.2 320 96C320 102.8 317.1 109.3 312.1 113.8L232.1 185.8C225 192.2 214.9 193.8 206.2 189.9C197.6 186.1 192 177.5 192 168V120H176C136.2 120 104 152.2 104 192V355.7C136.5 365.9 160 396.2 160 432C160 476.2 124.2 512 80 512C35.82 512 0 476.2 0 432C0 396.2 23.54 365.9 56 355.7V192C56 125.7 109.7 72 176 72H192V24zM48 432C48 449.7 62.33 464 80 464C97.67 464 112 449.7 112 432C112 414.3 97.67 400 80 400C62.33 400 48 414.3 48 432z"/></svg>
